usr/share/icons/biglinux-icons-material/scalable/mimetypes/video-x-generic.svg

<svg width="24" height="24" viewBox="0 0 24 24" fill="none" xmlns="http://www.w3.org/2000/svg">
<rect x="1" y="1" width="22" height="22" rx="6.6" fill="url(#paint0_radial_2_9)"/>
<path d="M15.4172 14.6931C15.4172 15.8364 14.4904 16.7632 13.3471 16.7632H6.84117C5.6979 16.7632 4.7711 15.8364 4.7711 14.6931V9.37008C4.7711 8.22681 5.6979 7.3 6.84117 7.3H13.3471C14.4904 7.3 15.4172 8.22681 15.4172 9.37008V14.6931ZM18.2889 8.1848C18.8014 8.1848 19.2202 8.58594 19.2485 9.09137L19.25 9.14591V14.9597C19.25 15.186 19.1701 15.4051 19.0245 15.5783C18.6956 15.9695 18.1212 16.0326 17.7163 15.7317L17.6704 15.6953L16.3562 14.5903C16.1359 14.405 16.0087 14.1318 16.0087 13.844V10.2789C16.0087 9.99361 16.1336 9.72266 16.3505 9.5374L17.6647 8.41509C17.8213 8.28132 18.0162 8.2018 18.2205 8.18723L18.2889 8.1848Z" fill="url(#paint1_linear_2_9)"/>
<path fill-rule="evenodd" clip-rule="evenodd" d="M14.9641 15.9858C15.2476 15.6316 15.4172 15.1822 15.4172 14.6931V10.3225L16.1436 9.70217C16.1858 9.66613 16.2308 9.63402 16.278 9.60607C16.106 9.78646 16.0087 10.0271 16.0087 10.2789V13.844C16.0087 14.1318 16.1359 14.405 16.3562 14.5903L17.6704 15.6953L17.7163 15.7317C17.7205 15.7348 17.7247 15.7379 17.7289 15.7409V16.2468C17.7289 16.4731 17.6491 16.6921 17.5034 16.8653C17.1745 17.2566 16.6001 17.3197 16.1952 17.0188L16.1493 16.9824L14.9641 15.9858ZM13.7592 16.7222C13.4608 17.499 12.7078 18.0503 11.826 18.0503H5.32008C4.1768 18.0503 3.25 17.1235 3.25 15.9802V10.6572C3.25 9.65497 3.96218 8.81912 4.90805 8.62809C4.81958 8.85843 4.7711 9.10859 4.7711 9.37008V14.6931C4.7711 15.8364 5.6979 16.7632 6.84117 16.7632H13.3471C13.4882 16.7632 13.626 16.7491 13.7592 16.7222Z" fill="url(#paint2_linear_2_9)" fill-opacity="0.5"/>
<defs>
<radialGradient id="paint0_radial_2_9" cx="0" cy="0" r="1" gradientUnits="userSpaceOnUse" gradientTransform="translate(17.5 1) rotate(116.565) scale(24.5967)">
<stop stop-color="#FAFAFA"/>
<stop offset="1" stop-color="#C0C0C0"/>
</radialGradient>
<linearGradient id="paint1_linear_2_9" x1="19.2254" y1="7.3" x2="4.87251" y2="16.6606" gradientUnits="userSpaceOnUse">
<stop stop-color="#967CCC"/>
<stop offset="1" stop-color="#5E35B1"/>
</linearGradient>
<linearGradient id="paint2_linear_2_9" x1="5.12212" y1="17.2846" x2="19.475" y2="7.3" gradientUnits="userSpaceOnUse">
<stop stop-color="#54452A" stop-opacity="0.35"/>
<stop offset="1" stop-color="#7A653E" stop-opacity="0"/>
</linearGradient>
</defs>
</svg>

<svg xmlns="http://www.w3.org/2000/svg" width="24" height="24" fill="none"><rect width="22" height="22" x="1" y="1" fill="url(#a)" rx="6.6"/><path fill="url(#b)" d="M15.417 14.693a2.07 2.07 0 0 1-2.07 2.07H6.841a2.07 2.07 0 0 1-2.07-2.07V9.37a2.07 2.07 0 0 1 2.07-2.07h6.506a2.07 2.07 0 0 1 2.07 2.07v5.323Zm2.872-6.508c.512 0 .931.4.96.906l.001.055v5.814a.961.961 0 0 1-1.534.772l-.046-.037-1.314-1.105a.975.975 0 0 1-.347-.746v-3.565c0-.285.125-.556.341-.742l1.315-1.122a.96.96 0 0 1 .556-.228l.068-.002Z"/><path fill="url(#c)" fill-opacity=".5" fill-rule="evenodd" d="M14.964 15.986c.284-.354.453-.804.453-1.293v-4.37l.727-.62a.96.96 0 0 1 .134-.097.975.975 0 0 0-.27.673v3.565c0 .288.128.561.348.746l1.314 1.105.046.037.013.009v.506a.96.96 0 0 1-1.534.772l-.046-.037-1.185-.996Zm-1.205.736a2.07 2.07 0 0 1-1.933 1.328H5.32a2.07 2.07 0 0 1-2.07-2.07v-5.323a2.07 2.07 0 0 1 1.658-2.029c-.088.23-.137.48-.137.742v5.323a2.07 2.07 0 0 0 2.07 2.07h6.506c.141 0 .279-.014.412-.04Z" clip-rule="evenodd"/><defs><linearGradient id="b" x1="19.225" x2="4.873" y1="7.3" y2="16.661" gradientUnits="userSpaceOnUse"><stop stop-color="#967CCC"/><stop offset="1" stop-color="#5E35B1"/></linearGradient><linearGradient id="c" x1="5.122" x2="19.475" y1="17.285" y2="7.3" gradientUnits="userSpaceOnUse"><stop stop-color="#54452A" stop-opacity=".35"/><stop offset="1" stop-color="#7A653E" stop-opacity="0"/></linearGradient><radialGradient id="a" cx="0" cy="0" r="1" gradientTransform="rotate(116.565 8.441 5.908) scale(24.5967)" gradientUnits="userSpaceOnUse"><stop stop-color="#FAFAFA"/><stop offset="1" stop-color="silver"/></radialGradient></defs></svg>
